resources/icons/open_left_panel.svg

<svg width="24" height="24" fill="none" xmlns="http://www.w3.org/2000/svg"><path d="M4.654 1.059a2.605 2.605 0 0 0-.834.272 3.227 3.227 0 0 0-1.516 1.547c-.306.638-.284-.074-.284 9.122 0 7.75.004 8.237.071 8.524.27 1.148 1.237 2.115 2.385 2.385.287.067.774.071 8.524.071 7.75 0 8.237-.004 8.524-.071 1.148-.27 2.115-1.237 2.385-2.385.067-.287.071-.774.071-8.524 0-7.75-.004-8.237-.071-8.524-.263-1.119-1.162-2.043-2.303-2.369L21.3 1.02l-8.18-.007c-6.575-.005-8.236.004-8.466.046M7.56 12v9H6.282c-1.194 0-1.294-.006-1.499-.082a1.405 1.405 0 0 1-.67-.603l-.093-.175-.01-8.054c-.007-5.406.003-8.105.03-8.207.091-.336.484-.74.814-.835.069-.02.706-.038 1.416-.04L7.56 3v9m13.66-8.917c.298.112.585.399.697.697l.083.223v15.994l-.083.223a1.28 1.28 0 0 1-.697.697c-.222.083-.242.083-5.942.083H9.56V3h5.718c5.7 0 5.72 0 5.942.083m-8.55 4.652a.97.97 0 0 0-.637.752c-.037.177-.033.254.024.453.068.237.088.259 1.475 1.65L14.938 12l-1.406 1.41c-1.387 1.391-1.407 1.413-1.475 1.65a.966.966 0 0 0 .441 1.119c.173.107.231.121.499.12.215 0 .344-.022.443-.074.192-.101 3.619-3.521 3.753-3.745.091-.153.107-.225.106-.48 0-.212-.022-.341-.074-.44-.098-.188-3.519-3.618-3.737-3.747-.211-.126-.593-.162-.818-.078" fill-rule="evenodd" fill="#000"/></svg>

<svg width="24" height="24" viewBox="0 0 24 24" fill="none" xmlns="http://www.w3.org/2000/svg"><path d="M4.654 1.059 C 4.292 1.125,4.120 1.181,3.820 1.331 C 3.137 1.672,2.637 2.181,2.304 2.878 C 1.998 3.516,2.020 2.804,2.020 12.000 C 2.020 19.750,2.024 20.237,2.091 20.524 C 2.361 21.672,3.328 22.639,4.476 22.909 C 4.763 22.976,5.250 22.980,13.000 22.980 C 20.750 22.980,21.237 22.976,21.524 22.909 C 22.672 22.639,23.639 21.672,23.909 20.524 C 23.976 20.237,23.980 19.750,23.980 12.000 C 23.980 4.250,23.976 3.763,23.909 3.476 C 23.646 2.357,22.747 1.433,21.606 1.107 L 21.300 1.020 13.120 1.013 C 6.545 1.008,4.884 1.017,4.654 1.059 M7.560 12.000 L 7.560 21.000 6.282 21.000 C 5.088 21.000,4.988 20.994,4.783 20.918 C 4.528 20.822,4.251 20.572,4.113 20.315 L 4.020 20.140 4.010 12.086 C 4.003 6.680,4.013 3.981,4.040 3.879 C 4.131 3.543,4.524 3.139,4.854 3.044 C 4.923 3.024,5.560 3.006,6.270 3.004 L 7.560 3.000 7.560 12.000 M21.220 3.083 C 21.518 3.195,21.805 3.482,21.917 3.780 L 22.000 4.003 22.000 12.000 L 22.000 19.997 21.917 20.220 C 21.805 20.518,21.518 20.805,21.220 20.917 C 20.998 21.000,20.978 21.000,15.278 21.000 L 9.560 21.000 9.560 12.000 L 9.560 3.000 15.278 3.000 C 20.978 3.000,20.998 3.000,21.220 3.083 M12.670 7.735 C 12.325 7.863,12.109 8.120,12.031 8.495 C 11.991 8.684,11.995 8.750,12.056 8.948 C 12.125 9.171,12.179 9.232,13.533 10.590 L 14.938 12.000 13.533 13.410 C 12.179 14.768,12.125 14.829,12.056 15.052 C 11.994 15.252,11.991 15.315,12.032 15.512 C 12.092 15.801,12.249 16.025,12.498 16.179 C 12.671 16.286,12.729 16.300,12.997 16.299 C 13.212 16.299,13.341 16.277,13.440 16.225 C 13.632 16.124,17.059 12.704,17.193 12.480 C 17.284 12.327,17.300 12.255,17.299 12.000 C 17.299 11.788,17.277 11.659,17.225 11.560 C 17.127 11.372,13.706 7.942,13.488 7.813 C 13.277 7.687,12.895 7.651,12.670 7.735 " stroke="none" fill-rule="evenodd" fill="black"></path></svg>
